images/list-unordered.svg

<?xml version="1.0" encoding="UTF-8" standalone="no"?>
<svg width="16px" height="14px" viewBox="0 0 16 14" version="1.1" xmlns="http://www.w3.org/2000/svg" xmlns:xlink="http://www.w3.org/1999/xlink">
    <!-- Generator: Sketch 40.3 (33839) - http://www.bohemiancoding.com/sketch -->
    <title>list-unordered</title>
    <desc>Created with Sketch.</desc>
    <defs></defs>
    <g id="Page-1" stroke="none" stroke-width="1" fill="none" fill-rule="evenodd">
        <g id="list-unordered" fill="#000000">
            <g id="Capa_1">
                <g id="Group">
                    <path d="M1.72081633,3.42708333 C2.67102041,3.42708333 3.44163265,2.65902778 3.44163265,1.71921296 C3.44163265,0.779398148 2.67102041,0.00810185185 1.72081633,0.00810185185 C0.770612245,0.00810185185 0,0.776157407 0,1.71597222 C0,2.65578704 0.773877551,3.42708333 1.72081633,3.42708333 L1.72081633,3.42708333 Z M1.72081633,0.802083333 C2.23020408,0.802083333 2.64163265,1.21365741 2.64163265,1.71597222 C2.64163265,2.21828704 2.22693878,2.62986111 1.72081633,2.62986111 C1.21469388,2.62986111 0.8,2.21828704 0.8,1.71597222 C0.8,1.21365741 1.21469388,0.802083333 1.72081633,0.802083333 L1.72081633,0.802083333 Z" id="Shape"></path>
                    <path d="M1.72081633,8.70300926 C2.67102041,8.70300926 3.44163265,7.9349537 3.44163265,6.99513889 C3.44163265,6.05532407 2.67102041,5.28726852 1.72081633,5.28726852 C0.770612245,5.28726852 0,6.05208333 0,6.99513889 C0,7.93819444 0.773877551,8.70300926 1.72081633,8.70300926 L1.72081633,8.70300926 Z M1.72081633,6.08125 C2.23020408,6.08125 2.64163265,6.49282407 2.64163265,6.99513889 C2.64163265,7.4974537 2.22693878,7.90902778 1.72081633,7.90902778 C1.21469388,7.90902778 0.8,7.50069444 0.8,6.99513889 C0.8,6.48958333 1.21469388,6.08125 1.72081633,6.08125 L1.72081633,6.08125 Z" id="Shape"></path>
                    <path d="M1.72081633,13.9821759 C2.67102041,13.9821759 3.44163265,13.2141204 3.44163265,12.2743056 C3.44163265,11.33125 2.6677551,10.5664352 1.72081633,10.5664352 C0.773877551,10.5664352 0,11.3344907 0,12.2743056 C0,13.2141204 0.773877551,13.9821759 1.72081633,13.9821759 L1.72081633,13.9821759 Z M1.72081633,11.3571759 C2.23020408,11.3571759 2.64163265,11.76875 2.64163265,12.2710648 C2.64163265,12.7766204 2.22693878,13.1849537 1.72081633,13.1849537 C1.21469388,13.1849537 0.8,12.7733796 0.8,12.2710648 C0.8,11.76875 1.21469388,11.3571759 1.72081633,11.3571759 L1.72081633,11.3571759 Z" id="Shape"></path>
                    <path d="M5.74367347,2.11458333 L15.5885714,2.11458333 C15.8106122,2.11458333 15.9902041,1.93634259 15.9902041,1.71597222 C15.9902041,1.49560185 15.8106122,1.31736111 15.5885714,1.31736111 L5.74367347,1.31736111 C5.52163265,1.31736111 5.34204082,1.49560185 5.34204082,1.71597222 C5.34204082,1.93634259 5.52163265,2.11458333 5.74367347,2.11458333 L5.74367347,2.11458333 Z" id="Shape"></path>
                    <path d="M5.74367347,7.39375 L15.5885714,7.39375 C15.8106122,7.39375 15.9902041,7.21550926 15.9902041,6.99513889 C15.9902041,6.77476852 15.8106122,6.59652778 15.5885714,6.59652778 L5.74367347,6.59652778 C5.52163265,6.59652778 5.34204082,6.77476852 5.34204082,6.99513889 C5.34204082,7.21550926 5.52163265,7.39375 5.74367347,7.39375 L5.74367347,7.39375 Z" id="Shape"></path>
                    <path d="M5.74367347,12.6696759 L15.5885714,12.6696759 C15.8106122,12.6696759 15.9902041,12.4914352 15.9902041,12.2710648 C15.9902041,12.0506944 15.8106122,11.8724537 15.5885714,11.8724537 L5.74367347,11.8724537 C5.52163265,11.8724537 5.34204082,12.0506944 5.34204082,12.2710648 C5.34204082,12.4914352 5.52163265,12.6696759 5.74367347,12.6696759 L5.74367347,12.6696759 Z" id="Shape"></path>
                </g>
            </g>
        </g>
    </g>
</svg>

<svg width="16" height="14" xmlns="http://www.w3.org/2000/svg"><g fill="#000" fill-rule="evenodd"><path d="M1.72 3.427c.951 0 1.722-.768 1.722-1.708S2.67.01 1.72.01C.77.008 0 .775 0 1.715c0 .94.774 1.711 1.72 1.711zm0-2.625c.51 0 .922.412.922.914a.92.92 0 0 1-1.842 0 .92.92 0 0 1 .92-.914zM1.72 8.703c.951 0 1.722-.768 1.722-1.708S2.67 5.287 1.72 5.287C.77 5.287 0 6.052 0 6.995s.774 1.708 1.72 1.708zm0-2.622c.51 0 .922.412.922.914a.92.92 0 0 1-1.842 0c0-.505.415-.914.92-.914zM1.72 13.982c.951 0 1.722-.768 1.722-1.708 0-.943-.774-1.708-1.721-1.708-.947 0-1.721.768-1.721 1.708s.774 1.708 1.72 1.708zm0-2.625c.51 0 .922.412.922.914a.92.92 0 1 1-1.842 0 .92.92 0 0 1 .92-.914zM5.744 2.115h9.845a.4.4 0 0 0 .401-.399.4.4 0 0 0-.401-.399H5.744a.4.4 0 0 0-.402.399.4.4 0 0 0 .402.399zM5.744 7.394h9.845a.4.4 0 0 0 .401-.399.4.4 0 0 0-.401-.398H5.744a.4.4 0 0 0-.402.398.4.4 0 0 0 .402.399zM5.744 12.67h9.845a.4.4 0 0 0 .401-.399.4.4 0 0 0-.401-.399H5.744a.4.4 0 0 0-.402.4.4.4 0 0 0 .402.398z"/></g></svg>
